X:30
T:Shoemaker's Daughter, The
R:reel
C:Ed Reavy (1898-1988)
H:Ed Reavy was born in Co. Cavan, but lived most of his life in Philadelphia.
Z:id:hn-reel-30
M:C|
K:Gmix
G2DG BcdB|GFDE FDCD|G2DG Bcde|fdBd c2Bc|
dgge fdcA|Bcde fdBd|gedc BG~G2|1 ^FGAF GcBA:|2 ^FGAF GABd||
|:g2dg bgdg|~g2dg fdcd|g2dg bgag|^fdcA GABd|
g=fdc BG~G2|^FGAB c2Bc|dg~g2 defd|1 cA^FA GABd:|2 cA^FA GcBA||
<end>
<start>
